X:1
T:Rhodes, SM
T:Charles Warwick Jordan, 1875
T:Rhodes, SM
T:Public Domain
C:Charles Warwick Jordan, 1875
Z:Public Domain
%%score ( 1 2 ) ( 3 4 )
L:1/8
M:3/4
K:D
V:1 treble 
V:2 treble 
V:3 bass 
V:4 bass 
V:1
 [FA]2 | (A2 F2) [Fd]2 | [^Ec]4 [EB]2 | [FA]6- | [FA]4 [DF]2 | [EG]2 [CE]2 [DF]2 | %6
 [EG]2 [GB]2 [GA]2 | [F-A]6 | [DF]4 [FA]2 | z2 d2 [Ac]2 | A2 G2 [FB]2 | (B2 e2) [Ed]2 | %12
 [Ec]4 [CB]2 | (A2 F2) D2 | [DF]4 [CE]2 | D4 |] %16
V:2
 x2 | F4 x2 | x6 | x6 | x6 | x6 | x6 | x6 | x6 | A4 x2 | B4 x2 | E4 x2 | x6 | D4 D2 | x6 | D4 |] %16
V:3
 [D,A,]2 | [D,A,]4 [D,A,]2 | [D,^G,]4 [D,G,]2 | [D,A,]6- | [D,A,]4 [D,A,]2 | [A,,A,]4 [A,,A,]2 | %6
 [A,,C]4 [A,,C]2 | [D,-D]6 | [D,A,]4 [D,D]2 | [F,D]4 [F,D]2 | [G,D]4 [G,D]2 | [^G,D]4 [G,B,]2 | %12
 A,4 [G,A,]2 | [F,A,]4 [B,,^G,]2 | (A,2 B,2) [A,,G,]2 | [D,F,]4 |] %16
V:4
 x2 | x6 | x6 | x6 | x6 | x6 | x6 | x6 | x6 | x6 | x6 | x6 | A,4 x2 | x6 | B,,4 x2 | x4 |] %16

